X: 1
T: DEMOCRATIC RAGE -- HORNPIPE
B: Ryan's Mammoth Collection of Fiddle Tunes
R: hornpipe
M: 2/4
L: 1/16
N: FIGURE. -- Lady Walpole's Reel. (Often Used.)
Z: Contributed 20010914174124 by John Chambers jmchambers:rcn.net
K: Bb
uF2 \
| v.B2vBc BFDF | BcdB edcB | Bdfg fdBd | edcB AcAF |
| v.B2vBc BFDF | BcdB edcB | Bdfg fdAc | B2B2B2 :|
|: (uBd) \
| v.f2vfg fdfb | v.g2vga gfga | bagf edcB | ABcA F2(de) |
| .f2fg fdfb | .g2ga gfga | kb2(fd) ecAc | B2B2B2 :|

